X:168
T:Pleasant Reel,The TS.168
T:Devil in a Bush,aka TS.168
T:Parson in the Suds,aka TS.168
T:Kincaldrum’s Reel,aka TS.168
M:C
L:1/8
Q:1/2=100
S:Thomas Sands’ MS,1810,Lincolnshire
R:reel
O:England;Lincolnshire
Z:vmp.Ruairidh Greig, 2011
K:Bb
f”rpt.mark added”|:b2fed2cB|ABcd ecca|b2fed2cB|FAce dBB2:|
|:FBdB cBdB|FBdB ecce|dfga bgfe|dfce dBB2:|]

